pix_core/i/marked.svg

<svg preserveAspectRatio="xMinYMid meet" viewBox="0 0 576 512" xmlns="http://www.w3.org/2000/svg"><path d="m315 315 158.4-215-29.3-29.4-215.1 158.4zm-187 5v-71.7c0-15.3 7.2-29.6 19.5-38.6l273.1-201.3c7.4-5.5 16.4-8.4 25.6-8.4 11.4 0 22.4 4.5 30.5 12.6l54.8 54.8c8.1 8.1 12.6 19 12.6 30.5 0 9.2-2.9 18.2-8.4 25.6l-201.3 273c-9 12.3-23.4 19.5-38.6 19.5h-71.8l-25.4 25.4c-12.5 12.5-32.8 12.5-45.3 0l-50.7-50.7c-12.5-12.5-12.5-32.8 0-45.3zm-121 146.3 63-63 70.6 70.6-31 31c-4.5 4.5-10.6 7-17 7h-68.6c-13.3 0-24-10.7-24-24v-4.7c0-6.4 2.5-12.5 7-17z" fill="#fff"/></svg>

<svg xmlns="http://www.w3.org/2000/svg" viewBox="0 0 576 512" preserveAspectRatio="xMinYMid meet"><!--!Font Awesome Free 6.5.2 by @fontawesome - https://fontawesome.com License - https://fontawesome.com/license/free Copyright 2024 Fonticons, Inc.--><path fill="#fff" d="M315 315l158.4-215L444.1 70.6 229 229 315 315zm-187 5l0 0V248.3c0-15.3 7.2-29.6 19.5-38.6L420.6 8.4C428 2.9 437 0 446.2 0c11.4 0 22.4 4.5 30.5 12.6l54.8 54.8c8.1 8.1 12.6 19 12.6 30.5c0 9.2-2.9 18.2-8.4 25.6L334.4 396.5c-9 12.3-23.4 19.5-38.6 19.5H224l-25.4 25.4c-12.5 12.5-32.8 12.5-45.3 0l-50.7-50.7c-12.5-12.5-12.5-32.8 0-45.3L128 320zM7 466.3l63-63 70.6 70.6-31 31c-4.5 4.5-10.6 7-17 7H24c-13.3 0-24-10.7-24-24v-4.7c0-6.4 2.5-12.5 7-17z"/></svg>
